resources/haticons/SVG/screen_lock_landscape.svg

<!-- Generated by IcoMoon.io -->
<svg version="1.1" xmlns="http://www.w3.org/2000/svg" width="24" height="24" viewBox="0 0 24 24">
<title>screen_lock_landscape</title>
<path d="M10.781 9.984v1.031h2.438v-1.031q0-0.469-0.352-0.82t-0.867-0.352-0.867 0.352-0.352 0.82zM9.984 15.984q-0.422 0-0.703-0.281t-0.281-0.703v-3q0-0.422 0.281-0.703t0.703-0.281v-1.031q0-0.844 0.586-1.406t1.43-0.563 1.43 0.563 0.586 1.406v1.031q0.422 0 0.703 0.281t0.281 0.703v3q0 0.422-0.281 0.703t-0.703 0.281h-4.031zM18.984 17.016v-10.031h-13.969v10.031h13.969zM21 5.016q0.797 0 1.406 0.586t0.609 1.383v10.031q0 0.797-0.609 1.383t-1.406 0.586h-18q-0.797 0-1.406-0.586t-0.609-1.383v-10.031q0-0.797 0.609-1.383t1.406-0.586h18z"></path>
</svg>

<svg xmlns="http://www.w3.org/2000/svg" width="24" height="24"><path d="M10.781 9.984v1.031h2.438V9.984q0-.469-.352-.82T12 8.812t-.867.352-.352.82zm-.797 6q-.422 0-.703-.281T9 15v-3q0-.422.281-.703t.703-.281V9.985q0-.844.586-1.406T12 8.016t1.43.563.586 1.406v1.031q.422 0 .703.281T15 12v3q0 .422-.281.703t-.703.281H9.985zm9 1.032V6.985H5.015v10.031h13.969zm2.016-12q.797 0 1.406.586t.609 1.383v10.031q0 .797-.609 1.383T21 18.985H3q-.797 0-1.406-.586t-.609-1.383V6.985q0-.797.609-1.383T3 5.016h18z"/></svg>
